assets/img/layer2.svg

<svg height="100" viewBox="0 0 900 100" width="900" xmlns="http://www.w3.org/2000/svg"><path d="m0 55 16.7-2.2c16.6-2.1 50-6.5 83.3-6s66.7 5.9 100 5.9 66.7-5.4 100-8.4 66.7-3.6 100-3.1 66.7 2.1 100 3.3 66.7 1.8 100 2.3 66.7.9 100 1.7 66.7 2.2 100 3.8c33.3 1.7 66.7 3.7 83.3 4.7l16.7 1v-58h-16.7c-16.6 0-50 0-83.3 0s-66.7 0-100 0-66.7 0-100 0-66.7 0-100 0-66.7 0-100 0-66.7 0-100 0-66.7 0-100 0-66.7 0-100 0-66.7 0-83.3 0h-16.7z" fill="#f1f1f1" stroke-linecap="round"/></svg>

<svg id="visual" viewBox="0 0 900 100" width="900" height="100" xmlns="http://www.w3.org/2000/svg" xmlns:xlink="http://www.w3.org/1999/xlink" version="1.1"><path d="M0 55L16.7 52.8C33.3 50.7 66.7 46.3 100 46.8C133.3 47.3 166.7 52.7 200 52.7C233.3 52.7 266.7 47.3 300 44.3C333.3 41.3 366.7 40.7 400 41.2C433.3 41.7 466.7 43.3 500 44.5C533.3 45.7 566.7 46.3 600 46.8C633.3 47.3 666.7 47.7 700 48.5C733.3 49.3 766.7 50.7 800 52.3C833.3 54 866.7 56 883.3 57L900 58L900 0L883.3 0C866.7 0 833.3 0 800 0C766.7 0 733.3 0 700 0C666.7 0 633.3 0 600 0C566.7 0 533.3 0 500 0C466.7 0 433.3 0 400 0C366.7 0 333.3 0 300 0C266.7 0 233.3 0 200 0C166.7 0 133.3 0 100 0C66.7 0 33.3 0 16.7 0L0 0Z" fill="#f1f1f1" stroke-linecap="round" stroke-linejoin="miter"></path></svg>
